X: 790
P: Longways for as many as will
M: 3/4
L: 1/8
K: D
[|\
d2 A2 (dA) | B2 (AF) (ED) | d2 (fd) (af) | e2 (dc) A2 | (BG) (Bd) (ce) | f2 (ed) A2 |
(FA) (BA) (dA) | F2 (ED) D2 |][| f2 fg/a/ (fd) | (ec) (c/d/e) (cA) | (dB) (^Ge) (AB) |

